src/img/icons/language.svg

<svg width="32" height="32" viewBox="0 0 32 32" fill="none" xmlns="http://www.w3.org/2000/svg">
<path d="M15.9998 27.2012C15.2219 27.2012 14.5581 26.9296 14.0084 26.3863C13.459 25.843 13.1843 25.1839 13.1843 24.4089C13.1843 23.6339 13.459 22.9703 14.0084 22.4181C14.5581 21.8658 15.2216 21.5896 15.9991 21.5896L16.8305 20.7948C17.0152 20.6083 17.2313 20.4599 17.4788 20.3498C17.7262 20.2396 17.9796 20.1845 18.2389 20.1845C18.7895 20.1845 19.2551 20.3821 19.6358 20.7774C20.0167 21.1726 20.2071 21.6399 20.2071 22.179V22.7897C20.2071 23.2458 20.3638 23.6307 20.6772 23.9443C20.9908 24.2577 21.3756 24.4144 21.8318 24.4144C22.1821 24.4144 22.4974 24.3083 22.7777 24.0962C23.0578 23.8841 23.2562 23.6131 23.373 23.2833L23.7982 22.1168C24.0035 21.5507 24.3348 21.0869 24.792 20.7254C25.2496 20.3639 25.7851 20.1831 26.3986 20.1831C26.6522 19.5361 26.8531 18.8591 27.0014 18.152C27.1496 17.445 27.2238 16.723 27.2238 15.9861C27.2238 13.8956 26.7099 12.0002 25.6822 10.2999C24.6543 8.59942 23.2947 7.25322 21.6036 6.26133V7.55793C21.6036 8.32403 21.3296 8.98247 20.7815 9.53327C20.2332 10.0843 19.5743 10.3598 18.8048 10.3598H17.4052V13.1757C17.4052 13.5605 17.2673 13.8907 16.9916 14.1665C16.7159 14.442 16.3853 14.5797 15.9998 14.5797H14.5948V16.9584C14.5948 17.4702 14.4196 17.9031 14.0693 18.2571C13.7192 18.611 13.2874 18.788 12.7737 18.788C12.4565 18.788 12.1601 18.7157 11.8846 18.5711C11.6089 18.4268 11.3865 18.2321 11.2175 17.9871L8.97392 14.5808H7.57195V15.9759C7.57195 16.6968 7.33442 17.3174 6.85934 17.8376C6.38449 18.3579 5.80416 18.6633 5.11834 18.7538C5.73574 21.1842 7.0499 23.1996 9.06082 24.8003C11.0717 26.4009 13.3847 27.2012 15.9998 27.2012ZM18.8103 18.788C18.4168 18.788 18.0843 18.65 17.8127 18.3741C17.541 18.0983 17.4052 17.7679 17.4052 17.3826C17.4052 16.9949 17.541 16.6652 17.8127 16.3936C18.0843 16.122 18.4168 15.9861 18.8103 15.9861H20.1985C20.592 15.9861 20.9245 16.122 21.1961 16.3936C21.4678 16.6652 21.6036 16.9949 21.6036 17.3826C21.6036 17.7704 21.4678 18.1015 21.1961 18.3761C20.9245 18.6507 20.592 18.788 20.1985 18.788H18.8103ZM22.0764 14.5808C21.6168 14.5808 21.2473 14.3978 20.9679 14.032C20.6888 13.6664 20.6203 13.2626 20.7623 12.8206L21.2957 11.2862C21.3963 10.9973 21.5636 10.7706 21.7976 10.6061C22.0313 10.4419 22.2839 10.3598 22.5553 10.3598C23.0174 10.3598 23.388 10.5427 23.6672 10.9086C23.9464 11.2744 24.0161 11.6778 23.8766 12.1189L23.3309 13.6547C23.2303 13.9434 23.0651 14.17 22.8352 14.3344C22.6053 14.4987 22.3524 14.5808 22.0764 14.5808ZM16.0084 29.0003C14.2084 29.0003 12.5201 28.6591 10.9434 27.9768C9.36655 27.2944 7.98967 26.3645 6.81281 25.1872C5.63618 24.0096 4.70656 22.6329 4.02393 21.0569C3.34131 19.4807 3 17.7935 3 15.9954C3 14.1973 3.3412 12.5084 4.02359 10.9287C4.70599 9.34887 5.63584 7.97382 6.81316 6.80358C7.99047 5.63333 9.36723 4.70679 10.9434 4.02393C12.5194 3.34131 14.2065 3 16.0046 3C17.803 3 19.492 3.3412 21.0716 4.02359C22.6512 4.70599 24.0262 5.63208 25.1964 6.80187C26.3669 7.97165 27.2934 9.34728 27.9761 10.9287C28.6587 12.5102 29 14.1979 29 15.992C29 17.7917 28.6588 19.48 27.9764 21.0569C27.294 22.6338 26.3679 24.0092 25.1981 25.1831C24.0283 26.357 22.6527 27.2866 21.0713 27.972C19.49 28.6575 17.8024 29.0003 16.0084 29.0003Z" fill="#131212"/>
</svg>

<svg xmlns="http://www.w3.org/2000/svg" viewBox="0 0 32 32">
  <path fill="currentColor" d="M16 27.201a2.73 2.73 0 0 1-1.992-.815 2.677 2.677 0 0 1-.824-1.977c0-.775.275-1.439.824-1.99a2.706 2.706 0 0 1 1.991-.83l.832-.794c.184-.187.4-.335.648-.445.247-.11.5-.166.76-.166.55 0 1.016.198 1.397.593.38.396.571.863.571 1.402v.61c0 .457.157.842.47 1.155.314.314.699.47 1.155.47.35 0 .665-.106.946-.318a1.72 1.72 0 0 0 .595-.813l.425-1.166a3.07 3.07 0 0 1 .994-1.392 2.516 2.516 0 0 1 1.607-.542c.253-.647.454-1.324.602-2.031a10.53 10.53 0 0 0 .223-2.166c0-2.09-.514-3.986-1.542-5.686a11.501 11.501 0 0 0-4.078-4.039v1.297c0 .766-.274 1.424-.822 1.975a2.689 2.689 0 0 1-1.977.827h-1.4v2.816c0 .384-.138.715-.413.99a1.353 1.353 0 0 1-.992.414h-1.405v2.378c0 .512-.175.945-.526 1.3a1.75 1.75 0 0 1-1.295.53c-.317 0-.614-.072-.89-.217a1.821 1.821 0 0 1-.667-.584l-2.243-3.406H7.572v1.395a2.67 2.67 0 0 1-.713 1.862 2.785 2.785 0 0 1-1.74.916c.617 2.43 1.93 4.446 3.942 6.046 2.01 1.6 4.324 2.401 6.939 2.401Zm2.81-8.413c-.393 0-.726-.138-.997-.414a1.363 1.363 0 0 1-.408-.991c0-.388.136-.718.408-.99.271-.271.604-.407.997-.407h1.39c.393 0 .725.136.997.408.272.271.408.6.408.989 0 .387-.136.719-.408.993a1.35 1.35 0 0 1-.998.412H18.81Zm3.266-4.207c-.46 0-.829-.183-1.108-.549a1.256 1.256 0 0 1-.206-1.211l.534-1.535a1.348 1.348 0 0 1 1.26-.926c.461 0 .832.183 1.111.549.28.365.35.769.21 1.21l-.546 1.536a1.36 1.36 0 0 1-.496.68c-.23.164-.483.246-.759.246ZM16.008 29c-1.8 0-3.488-.342-5.065-1.024a13.18 13.18 0 0 1-4.13-2.79 13.21 13.21 0 0 1-2.79-4.13C3.342 19.48 3 17.794 3 15.995c0-1.798.341-3.487 1.024-5.066a13.046 13.046 0 0 1 2.79-4.125 13.292 13.292 0 0 1 4.13-2.78C12.518 3.34 14.205 3 16.003 3c1.799 0 3.488.341 5.068 1.024a13.142 13.142 0 0 1 4.124 2.778 13.123 13.123 0 0 1 2.78 4.127C28.66 12.51 29 14.198 29 15.992c0 1.8-.341 3.488-1.024 5.065a13.222 13.222 0 0 1-2.778 4.126 13.136 13.136 0 0 1-4.127 2.789C19.49 28.657 17.802 29 16.008 29Z"/>
</svg>
